X: 71
T: Fine and Dandy
M: 4/4
L: 1/4
C: Swift & James
Q: 1/4=300
%%staves (chords melody)
K: F
%%text (up)
%%vskip 20
% A %%%%%%%%%%%%%%%%%%%%%%%%%%%%%%%%%%%%
P: A
V: chords
"Fmaj7"x2 x2 | "Abdim7"x2 x2 | "Gm7"x2 x2 | "C7"x2 x2 |
"Fmaj7"x2 x2 | "Abdim7"x2 x2 | "Gm7"x2 x2 | "C7"x2 x2 ||
V: melody
E2DF- | FF2D | F2DA- | A4 |
E2DF- | FF2D | A2Fc- | c4 ||
P: B
V: chords
"Cm7"x2 x2 | "F7"x2 x2 | "Bbmaj7"x2 "(Cm7"x2 | "C#dim7"x2 "Bb/D"x2 |
"Bbm7"x2 x2 | "Eb7"x2 x2 | "Abmaj7"x2 x2 | "Gm7"x2 "C7"x2 ||
V: melody
zc=Bc | dcAF | D4 | z4 |
B2Ac- | cBG_E | C4 | z4 ||
P: A
V: chords
"Fmaj7"x2 x2 | "Abdim7"x2 x2 | "Gm7"x2 x2 | "C7"x2 x2 |
"Fmaj7"x2 x2 | "Abdim7"x2 x2 | "Gm7"x2 x2 | "C7"x2 x2 ||
V: melody
E2DF- | FF2D | F2DA- | A4 |
E2DF- | FF2D | A2Fc- | c4 ||
P: C
V: chords
"Cm7"x2 x2 | "F7"x2 x2 | "Bbmaj7"x2 x2 | "Bbm6"x2 x2 |
"Am7"x2 "Dm7"x2 | "Gm7"x2 "C7"x2 | "F6"x2 x2 | "T.A."x2 x2 |]
V: melody
B2Gd- | d3A | c2GB- | B4 |
A<AA<A| A<AA2 | F4 | z4 |]
